X:1
T:The Bell of the Steamer Atlantic
T:The Bell of the Steamer Atlantic
T:By a Gentleman of Trenton NJ (Anonymous)
T: A Young Lady of Richmond, Va. 
T:WRITTEN ON THE LOSS OF THE ILL FATED STEAMER AYLANTIC 
T:by IMSLP - Public Domain
T:by IMSLP - Public Domain
T:by IMSLP - Public Domain
C:By a Gentleman of Trenton NJ (Anonymous)
Z:A Young Lady of Richmond, Va.
Z:by IMSLP - Public Domain
%%score 1 { 2 | 3 }
L:1/8
Q:1/4=120
M:4/4
K:A
V:1 treble nm="Voice"
V:2 treble nm="Piano"
V:3 bass 
V:1
"^Espressivo" z8 | z8 | z4 z2 z E | E4 (A3 B) | c4 z4 | c4 d3 c | B4 z2 B2 | B4 (c2 B2) | %8
w: ||A|fear- ful *|dirge|sweeps o'er the|sea, A|wild and _|
 (A4{BA} G2) A2 | B4 z4 | z4 z2 E2 | E4 (A3 B) | c6 e2 | (d2 c2) (B2 A2) | B4 e3 e | %15
w: mourn- * ful|sound,|A\-|bove the *|wind's shrill|min- * strel- *|sy And the|
 (e2 c2) (d2 c2) | (B2 A2) (c3 B) | E4 z2 E2 | c4 (B2 c2) |!f! e4 z2 c2 |!f! B4!<(! (c2 B2) | %21
w: white * waves *|rest- * less *|bound, The|tide flows *|hight and|loud- er *|
 e4!<)! z4 | !>!c4 A3 A | (B2 A2) (G2 F2) | E4 z4 | z4 z2 E2 | E4 (A3 B) | c4 z2 z c | c4 (d3 c) | %29
w: still|Swells out the|deep * toned *|knell,|'Tis|e- choed *|from the|roc- ky *|
 B4 z2 A2 | (F2 A2) (G2 F2) |"^ad lib:" !fermata!!invertedturn!E4 (c3 B) | A6 z2 |] z8 | z4 z2 E2 | %35
w: hill And|o- * cean's *|low- est *|cell.||Toll|
 E4 (A3 B) | c4 z4 | c4 d3 c | B4 z2 B2 | B4 (c2 B2) | (A4{BA} G2) A2 | B4 z4 | z4 z2 E2 | %43
w: on, toll *|on,|beau- ty and|pride, Man\-|hood's strenght, *|youth- * ful|bloom|And|
 E4 (A3 B) | c6 e2 | (d2 c2) (B2 A2) | B4 z2 e2 | (e2 c2) (d2 c2) | (B2 A2) (c3 B) | E4 z2 E2 | %50
w: hoa- ry *|age lie|side * by *|side, In|one * en- *|gul- * phing *|tomb, The|
 c4 (B2 c2) | e4 z2 c2 | B4 (c2 B2) | e6 z2 |!>(! c4 A3 A!>)! | (B2 A2) (G2 F2) | E4 z4 | z8 | %58
w: bil- lows *|roar breaks|not their *|sleep.|What boots its|rage * to *|them?||
 E4 A3 B | c4 z2 z c | c4 (d3 c) | B4 z2 A2 | (F2 A2) (G2 F2) | !>!!fermata!E6 E2 | %64
w: Peace- ful- ly|rest be-|neath the *|deep, And|thou * dost *|peal their|
"^ad lib:" (!invertedturn!E4 c3) B | A6 z2 | !fermata!z8 |] %67
w: re- * qui|em.||
V:2
 z8 | z8 | z8 | [CA]2 E2 [CA]2 [EB]2 | [Ac]2 E2 [Ac]2 E2 | [Ac]2 E2 [Bd]3 [Ac] | %6
 [GB]2 E2 [GB]2 E2 | [GB]2 E2 [GB]2 E2 | [EA]2 C2 [EG]2 [FA]2 | [EG]4 z4 | z4 z2 E2 | %11
 [CA]2 E2 [CA]2 [EB]2 | [Ac]2 E2 [Ac]2 E2 | [Fd]2 [Ec]2 [DB]2 [CA]2 | [B,G]2 E2 [B,G]2 E2 | %15
 [CA]2 E2 [Fd]2 [Ec]2 | [DB]2 z2 [Ec]2 z2 | [B,EB]4 z2 E2 | [Ec]4 ([DB]2 [CA]2) | %19
!f! [B,G]2 E2 [B,G]2 E2 |!f! [B,G]2 E2 [CA]2 E2 | [B,EG]4 z4 | !>![CFA]6 z2 | %23
 [B,G]2 [A,F]2 [G,E]2 [F,^D]2 | [G,E]4 z4 | z4 z2 E2 | [CA]2 E2 [CA]3 [EB] | [Ac]2 E2 [Ac]2 E2 | %28
 [Ac]2 E2 [Bd]2 E2 | [GB]2 E2 [EA]2 C2 | ([DF]2 [FA]2) ([EG]2 [DF]2) | %31
 !fermata![CE]4 ([CE]3 [B,D]) | [A,C]6 z2 |] z8 | z8 | z8 | [Ac]2 E2 [Ac]2 E2 | %37
 [Ac]2 E2 [Bd]3 [Ac] | [GB]2 E2 [GB]2 E2 | [GB]2 E2 [Ac]2 [GB]2 | [EA]2 C2 [EG]2 [FA]2 | [EG]4 z4 | %42
 z4 z2 E2 | [CA]2 E2 [CA]2 E2 | [Ac]2 E2 [Ac]2 E2 | [Fd]2 [Ec]2 [DB]2 [CA]2 | [B,G]2 E2 [B,G]2 E2 | %47
 [CA]2 E2 [Fd]2 [Ec]2 | [DB]2 z2 [Ec]2 z2 | [B,EB]4 z2 E2 | [Ec]4 [DB]2 [CA]2 | %51
 [B,G]2 E2 [B,G]2 E2 | [B,G]2 E2 [CA]2 E2 | [B,EG]6 z2 |!>(! [CFA]6 z2!>)! | %55
 [B,G]2 [A,F]2 [G,E]2 [F,^D]2 | [G,E]4 z4 | z8 | [CE]4 [CA]3 [EB] | [Ac]2 E2 [Ac]2 E2 | %60
 [Ac]2 E2 [Bd]2 E2 | [GB]2 E2 [EA]2 C2 | ([DF]2 [FA]2) ([EG]2 [DF]2) | !>!!fermata![CE]6 z2 | %64
 [CE]4 ([CE]3 [B,D]) | [A,C]6 z2 | !fermata!z8 |] %67
V:3
 A,2 .C,>.E, .A,,2 z2 |{/G,,} !>!A,,4{/G,,} !>!A,,4 |{/G,,} !>!A,,6 z2 | [A,,A,]2 z2 [A,,A,]2 z2 | %4
 [A,,A,]2 z2 [A,,A,]2 z2 | [A,,A,]2 z2 E,2 z2 | E,2 z2 z4 | E,2 z2 A,,2 z2 | C,2 z2 B,,2 z2 | %9
 .E,2 .F,2 .E,2 .D,2 | .C,2 .D,2 .C,2 .B,,2 | A,,2 z2 A,2 z2 | [A,,A,]2 z2 [A,,A,]2 z2 | %13
 A,2 z2 z2 A,,2 | [E,,E,]2 z2 [E,,E,]2 z2 | [A,,A,]2 z2 [A,,A,]2 z2 | D,2 z2 G,,2 z2 | E,4 z4 | %18
 A,2 z2 z2 A,,2 | E,2 z2 E,2 z2 | E,2 z2 A,2 z2 | [E,,E,]4 z4 | [A,,A,]6 z2 | B,,2 z2 B,,2 z2 | %24
 .E,2 .F,2 .E,2 .D,2 | .C,2 .D,2 .C,2 .B,,2 | [A,,A,]2 z2 [A,,A,]2 z2 | [A,,A,]2 z2 [A,,A,]2 z2 | %28
 [A,,A,]2 z2 B,,2 z2 | E,2 z2 C,2 z2 | D,2 z2 D,2 z2 |"^colla voce." !fermata!E,4 z4 | A,,6 z2 |] %33
{/G,,} !>!A,,4{/G,,} !>!A,,4 |{/G,,} !>!A,,6 z2 |{/G,,} !>!A,,4{/G,,} !>!A,,4 |{/G,,} !>!A,,6 z2 | %37
 [A,,A,]2 z2 E,2 z2 | E,2 z2 z4 | E,2 z2 A,,2 z2 | C,2 z2 B,,2 z2 | .E,2 .F,2 .E,2 .D,2 | %42
 .C,2 .D,2 .C,2 .B,,2 | A,,2 z2 A,2 z2 | [A,,A,]2 z2 [A,,A,]2 z2 | A,2 z2 A,,2 z2 | %46
 [E,,E,]2 z2 [E,,E,]2 z2 | A,2 z2 A,,2 z2 | D,2 z2 G,,2 z2 | [E,,E,]4 z4 | A,2 z2 z2 A,,2 | %51
 E,2 z2 E,2 z2 | E,2 z2 A,2 z2 | [E,,E,]6 z2 | [A,,A,]6 z2 | B,,2 z2 B,,2 z2 | %56
 .E,2 .F,2 .E,2 .D,2 | .C,2 .D,2 .C,2 .B,,2 | [A,,A,]2 z2 [A,,A,]2 z2 | [A,,A,]2 z2 [A,,A,]2 z2 | %60
 A,2 z2 B,,2 z2 | E,2 z2 C,2 z2 | D,2 z2 D,2 z2 | !fermata!E,6 z2 |"^colla voce." [E,,E,]6 z2 | %65
{/G,,} !>!A,,4{/G,,} !>!A,,4 |{/!fermata!G,,} !>!!fermata!A,,6 z2 |] %67

